doc/logo-only.svg

<svg viewBox="60 0 230 224" xmlns="http://www.w3.org/2000/svg"><path d="m102.249.584028c9.46 0 19.566 3.440102 30.316 10.320372 10.536 6.6652 25.049 18.4907 43.539 35.4763 31.821-26.661 48.795-32.6665 65.135-32.6665 10.536 0 19.566 2.9026 27.091 8.7078 13.863 10.6007 16.175 34.8103 6.463 50.7272-7.74 12.6855-17.846 26.3385-30.316 40.9588 28.381 32.251 44.233 55.457 44.233 71.368 0 11.395-3.548 20.103-10.643 26.123-7.31 6.02-16.448 9.03-27.413 9.03-16.556 0-42.514-12.562-74.55-39.438-18.275 16.125-32.681 27.306-43.216 33.541-10.751 6.235-20.964 9.353-30.639 9.353-12.9004 0-22.8983-4.193-29.9935-12.578-7.3103-8.601-10.9654-18.706-10.9654-30.316 0-7.526 1.075-14.083 3.2251-19.674 2.1501-5.59 6.1277-11.825 11.9329-18.705 5.8052-7.096 15.0506-16.878 27.7359-29.349-12.2553-12.47-21.2856-22.4682-27.0909-29.9934-6.0202-7.7403-10.1053-14.5131-12.2554-20.3183-2.3651-5.8052-3.5476-12.2554-3.5476-19.3507 0-7.5253 1.6125-14.513 4.8376-20.9632 3.2252-6.6653 7.9553-12.0405 14.1906-16.12565 6.2352-4.08515 13.5455-6.127721 21.9307-6.127722z" fill="#fff"/></svg>

<svg viewBox="60 0 230 224" xmlns="http://www.w3.org/2000/svg" aria-labelledby="title" role="img">
  <title>eXeLearning Logo</title>
  <path d="M102.249 0.584028C111.709 0.584028 121.815 4.02413 132.565 10.9044C143.101 17.5696 157.614 29.3951 176.104 46.3807C207.925 19.7197 224.899 13.7142 241.239 13.7142C251.775 13.7142 260.805 16.6168 268.33 22.422C282.193 33.0227 284.505 57.2323 274.793 73.1492C267.053 85.8347 256.947 99.4877 244.477 114.108C272.858 146.359 288.71 169.565 288.71 185.476C288.71 196.871 285.162 205.579 278.067 211.599C270.757 217.619 261.619 220.629 250.654 220.629C234.098 220.629 208.14 208.067 176.104 181.191C157.829 197.316 143.423 208.497 132.888 214.732C122.137 220.967 111.924 224.085 102.249 224.085C89.3486 224.085 79.3507 219.892 72.2555 211.507C64.9452 202.906 61.2901 192.801 61.2901 181.191C61.2901 173.665 62.3651 167.108 64.5152 161.517C66.6653 155.927 70.6429 149.692 76.4481 142.812C82.2533 135.716 91.4987 125.934 104.184 113.463C91.9287 100.993 82.8984 90.9948 77.0931 83.4696C71.0729 75.7293 66.9878 68.9565 64.8377 63.1513C62.4726 57.3461 61.2901 50.8959 61.2901 43.8006C61.2901 36.2753 62.9026 29.2876 66.1277 22.8374C69.3529 16.1721 74.083 10.7969 80.3183 6.71175C86.5535 2.6266 93.8638 0.584029 102.249 0.584028Z" fill="#FFFFFF"/>
</svg>
